svg/library-11.svg

<?xml version="1.0" encoding="utf-8"?>
<!-- Generator: Adobe Illustrator 19.2.1, SVG Export Plug-In . SVG Version: 6.00 Build 0)  -->
<!DOCTYPE svg PUBLIC "-//W3C//DTD SVG 1.1//EN" "http://www.w3.org/Graphics/SVG/1.1/DTD/svg11.dtd">
<svg version="1.1"
	 id="Layer_1" inkscape:version="0.91 r13725" sodipodi:docname="library-11.svg" xmlns:cc="http://creativecommons.org/ns#" xmlns:dc="http://purl.org/dc/elements/1.1/" xmlns:inkscape="http://www.inkscape.org/namespaces/inkscape" xmlns:rdf="http://www.w3.org/1999/02/22-rdf-syntax-ns#" xmlns:sodipodi="http://sodipodi.sourceforge.net/DTD/sodipodi-0.dtd" xmlns:svg="http://www.w3.org/2000/svg"
	 xmlns="http://www.w3.org/2000/svg" xmlns:xlink="http://www.w3.org/1999/xlink" x="0px" y="0px" width="11px" height="11px"
	 viewBox="0 0 11 11" style="enable-background:new 0 0 11 11;" xml:space="preserve">
<path id="path5" inkscape:connector-curvature="0" sodipodi:nodetypes="cccccccccccccccccccccccccccccccccccccccccccccccccccccccc" d="
	M0,1v7c3.26,0,5.4902,2,5.4902,2S7.76,8,11,8V1C7,1,5.4902,2.7246,5.4902,2.7246S4,1,0,1z M1,2c1.1953-0.0313,3.053,0.4015,4,1.3477
	L5.5,4L6,3.3477C6.9615,2.4183,8.8009,1.9878,10,2v5C8,7,6.6456,7.8564,5.4902,8.7812C4.3506,7.8533,3,7,1,7V2z M2,3.3027v0.1816
	c0.8234,0.1688,2.0997,0.6868,3,1.1758V4.4316C4.0828,3.9535,2.8241,3.46,2,3.3027z M9,3.3027C8.1759,3.46,6.9172,3.9535,6,4.4316
	v0.2285c0.9003-0.489,2.1766-1.007,3-1.1758V3.3027z M2,4.2227v0.1816c0.8217,0.1539,2.0985,0.6584,3,1.1328V5.3418
	C4.0827,4.8663,2.8238,4.3752,2,4.2227z M9,4.2227C8.1762,4.3752,6.9173,4.8663,6,5.3418v0.1953
	c0.9015-0.4744,2.1783-0.9789,3-1.1328V4.2227z M2,5.1172v0.1816c0.8216,0.1547,2.0984,0.659,3,1.1328V6.2363
	C4.0825,5.7614,2.8236,5.2707,2,5.1172z M9,5.1172C8.1764,5.2707,6.9175,5.7614,6,6.2363v0.1953
	c0.9016-0.4738,2.1784-0.9781,3-1.1328V5.1172z M2,6v0.1816C2.8201,6.322,4.097,6.811,5,7.2695V7.1191
	C4.0825,6.6445,2.8236,6.1538,2,6z M9,6C8.1764,6.1538,6.9175,6.6445,6,7.1191v0.1504C6.903,6.811,8.1799,6.322,9,6.1816V6z"/>
</svg>

<svg xmlns="http://www.w3.org/2000/svg" width="11" height="11">
    <path d="M0 1v7c3.26 0 5.49 2 5.49 2S7.76 8 11 8V1C7 1 5.49 2.725 5.49 2.725S4 1 0 1zm1 1c1.195-.031 3.053.402 4 1.348L5.5 4l.5-.652c.962-.93 2.8-1.36 4-1.348v5c-2 0-3.354.856-4.51 1.781C4.35 7.853 3 7 1 7V2zm1 1.303v.181c.823.17 2.1.687 3 1.176v-.228c-.917-.479-2.176-.972-3-1.13zm7 0c-.824.157-2.083.65-3 1.129v.228c.9-.489 2.177-1.007 3-1.176v-.181zm-7 .92v.181c.822.154 2.099.659 3 1.133v-.195c-.917-.476-2.176-.967-3-1.12zm7 0c-.824.152-2.083.643-3 1.119v.195c.901-.474 2.178-.979 3-1.133v-.181zm-7 .894V5.3c.822.155 2.098.659 3 1.133v-.196c-.918-.475-2.176-.965-3-1.119zm7 0c-.824.154-2.082.644-3 1.12v.195c.902-.474 2.178-.979 3-1.133v-.182zM2 6v.182c.82.14 2.097.629 3 1.087v-.15C4.082 6.645 2.824 6.154 2 6zm7 0c-.824.154-2.082.644-3 1.12v.15c.903-.459 2.18-.948 3-1.088V6z"/>
</svg>
